src/assets/duotone/ForwardItem.svg

<svg width="24" height="24" viewBox="0 0 24 24"  xmlns="http://www.w3.org/2000/svg">
<path opacity="0.4" d="M21.25 5.77V9C21.25 11.29 20.52 12.02 18.23 12.02H18.13V10.38C18.13 7.26 16.74 5.87 13.62 5.87H11.98V5.77C11.98 3.48 12.71 2.75 15 2.75H18.23C20.52 2.75 21.25 3.48 21.25 5.77Z" />
<path d="M16.6301 10.3801V13.6201C16.6301 15.9001 15.9001 16.6301 13.6201 16.6301H10.3801C8.10012 16.6301 7.37012 15.9001 7.37012 13.6201V10.3801C7.37012 8.10013 8.10012 7.37012 10.3801 7.37012H13.6201C15.9001 7.37012 16.6301 8.10013 16.6301 10.3801Z" />
<path opacity="0.4" d="M12.02 18.1305V18.2305C12.02 20.5205 11.29 21.2505 9 21.2505H5.77C3.48 21.2505 2.75 20.5205 2.75 18.2305V15.0005C2.75 12.7105 3.48 11.9805 5.77 11.9805H5.87V13.6205C5.87 16.7405 7.26 18.1305 10.38 18.1305H12.02Z" />
</svg>

<?xml version="1.0" encoding="UTF-8"?>
<svg width="24" height="24" viewBox="0 0 24 24" xmlns="http://www.w3.org/2000/svg">
 <path d="m21.25 5.77v3.23c0 2.29-0.73 3.02-3.02 3.02h-0.1v-1.64c0-3.12-1.39-4.51-4.51-4.51h-1.64v-0.1c0-2.29 0.73-3.02 3.02-3.02h3.23c2.29 0 3.02 0.73 3.02 3.02z" opacity=".4"/>
 <path d="m16.63 10.38v3.24c0 2.28-0.73 3.01-3.01 3.01h-3.24c-2.28 0-3.01-0.73-3.01-3.01v-3.24c0-2.28 0.73-3.01 3.01-3.01h3.24c2.28 0 3.01 0.73001 3.01 3.01z"/>
 <path d="m12.02 18.13v0.1c0 2.29-0.73 3.02-3.02 3.02h-3.23c-2.29 0-3.02-0.73-3.02-3.02v-3.23c0-2.29 0.73-3.02 3.02-3.02h0.1v1.64c0 3.12 1.39 4.51 4.51 4.51h1.64z" opacity=".4"/>
</svg>
